X:73
T:GB/67a/73 Salisbury Plain Version 2 of 3
%%VWML:GB-7a-73-0
F:http://www.vwml.org/record/GB/7a/73
C:Transcribed by Simon Furey and Lewis Jones
L:1/4
M:4/4
I:linebreak $
K:Ddor
A2 | D A G A | G2 A E | D2 A3/2 B/ | c A F A | c2 d c | A3 A/B/ |$ c A F A | c2 d D | F E D C | c c d c | A2 G3/2 F/ | D2 |]
